X:1
T:Morning Mood
T:Morning Mood
T:Violín
T:Peer Gynt
C:Peer Gynt
L:1/8
Q:1/4=80
M:6/8
K:E
V:1 treble nm="Violín" snm="Vln."
V:1
"^Allegretto pastorale"!p! (bgf efg) | (b{ga}gf ef/g/f/g/) |{ga} (bgb c'gc' | bgf e2) z | %4
 (BGF EFG) | (B{GA}GF EF/G/F/G/) |{GA} (BGB cGc | d=c_B G2) z | (d'=c'_b gbc') | %9
 (d'{=c'^c'}=c'_b gb/c'/b/c'/) |{=c'^c'} (d'=c'd' e'c'e' | d'=c'_b g2) z | (d=c_B GBc) | %13
 (d{=c^c}=c_B GB/c/B/c/) |{=c^c} (d=cd e^ce | fdc B2) z | (f'd'c' bc'/d'/c'/d'/) | %17
 (fdc Bc/d/c/d/) | (f'd'b) (fdB) | (f'd'b) (fdB) |!f! (bgf efg) | (b{ga}gf ef/g/f/g/) | %22
{ga} (bgb c'gc' | c'ag f) z2 | (c'ag fga) | (c'{ab}ag fg/a/g/a/) |{ab} (c'ac' d'ad') | %27
{d'e'} (d'bd' e'be') |{e'f'} (e'c'e' f'c'f') |!ff! (g'/d'/=c'/g/c'/d'/) (g'/d'/c'/g/c'/d'/) | %30
 (d'/=c'/g/d/g/c'/) (c'/g/d/=c/d/g/) |!p! ([Gg]3 [Ff]3 | [Ee]3 [Ff]3) |!ff! g3!p! (e2 f) | %34
!ff! g3!p! (e2 f) |!p! (=c'/g/d/g/c'/d'/) (d'/c'/g/c'/d'/g'/) | %36
 (g'/d'/=c'/d'/g'/=c''/) (c''/=g'/e'/g'/c'/e'/) |!ff! (=f'/=c'/a/=g/a/c'/) (f'/c'/a/=f/a/c'/) | %38
 (=c'/a/=f/=c/f/a/) (a/f/c/A/c/f/) |!p! ([=F=f]3 [Dd]3 | [Cc]3 [Dd]3) |!ff! =f3!p! (c2 d) | %42
!ff! =f3!p! c2 d |!p! (a/=f/=c/f/a/=c'/) (c'/a/f/a/c'/=f'/) | %44
 (=f'/=c'/a/c'/f'/a'/) (a'/e'/^c'/e'/a'/c''/) |!ff! (=d''/a'/f'/=d'/f'/a'/) (f/=d/A/F/A/d/) | %46
 (f/=d/A/F/A/d/) (f/d/A/F/A/d/) |!p! (=d'/a/f/=d/f/a/) (d'/a/f/d/f/a/) | %48
 (c'/a/=f/c/f/a/) (c'/a/f/c/f/a/) |!mp! (=cA=G =FGA) | (=cA=G =FG/A/G/A/) | (=cAc =dAd | %52
 =c3- c) z2 | (=c'/a/=f/=c/f/a/) (c'/a/f/c/f/a/) | (=c'/g/e/=c/e/g/) (c'/g/e/c/e/g/) | %55
!p! (BGF EFG) | (BGF EF/G/F/G/) | (BGB cGc | B3- B2) z | (cGc B2) z | (cGc B2) z | (c6 | G3 c3) | %63
!pp! BGF EFG | BGF EF/G/F/G/ | BGB c_Bc | d6{cd} | (Tb{ab)} z z (Tb{ab)} z z | %68
 (Tb{a)b} z z (Tb{a)b} z z | BGB c_Bc | Td6{cd} | gfg gfg | (Td6{c)d} | gfg a3 | gfg a3 | z6 | %76
 (d6 | d3) e3 |!p! (bgf efg | bgf ef/g/f/g/ | [Bb]3) [cc']3 | [B,B]3 [Cc]3 |!pp! [Bb]6 | [cc']6 | %84
 [ee']6 | [be']6- | [be']6 |] %87

